X:4
T:Bergeret sans roch, Reprise II
T:(Basse dansse 2)
C:Tielman Susato
S:Tileman Susato: Danserye (1551)
R:Basse dance
M:3/2
L:1/2
T:Bassus
K:C bass
ccc|F2F|cd/2_B/2c|G2z|cB/2G/2d|c2z|zB/2G/2d|c2z|
%
ccc|F2F|cd/2_B/2c|G2z|c2c|Ad_B|cG2|c2z|
%
ccc|G2d|ed2|G2z|ddd|dcd|BA2|d2z|
%
ccc|G2d|ed2|G2G|c2c|Ad_B|cG2|c2z|]
